;FLAVOR:Marlin
;TIME:4688
;Filament used: 2.89656m
;Layer height: 0.1
;MINX:52.45
;MINY:74.287
;MINZ:0.2
;MAXX:167.55
;MAXY:145.712
;MAXZ:2.5
;TARGET_MACHINE.NAME:Creality Ender-3 Pro
;Generated with Cura_SteamEngine 5.9.0
M82 ;absolute extrusion mode
; Ender 3 Custom Start G-code
G92 E0 ; Reset Extruder
G28 ; Home all axes
G29
G1 Z5.0 F3000 ; Move Z Axis up a bit during heating to not damage bed
M104 S175 ; Start heating up the nozzle most of the way
M190 S65.0 ; Start heating the bed, wait until target temperature reached
M109 S210.0 ; Finish heating the nozzle
G1 Z2.0 F3000 ; Move Z Axis up little to prevent scratching of Heat Bed
G1 X0.1 Y20 Z0.3 F5000.0 ; Move to start position
G1 X0.1 Y200.0 Z0.3 F1500.0 E15 ; Draw the first line
G1 X0.4 Y200.0 Z0.3 F5000.0 ; Move to side a little
G1 X0.4 Y20 Z0.3 F1500.0 E30 ; Draw the second line
G92 E0 ; Reset Extruder
G1 Z2.0 F3000 ; Move Z Axis up little to prevent scratching of Heat Bed
G1 X5 Y20 Z0.3 F5000.0 ; Move over to prevent blob squish
G92 E0
G92 E0
G1 F1500 E-6.5
;LAYER_COUNT:24
;LAYER:0
M107
G0 F6000 X52.916 Y79.339 Z0.2
;TYPE:SKIRT
G1 F1500 E0
G1 F1200 X53.969 Y77.311 E0.076
G1 X55.53 Y75.852 E0.14707
G1 X57.553 Y74.645 E0.22542
G1 X59.271 Y74.363 E0.28333
G1 X160.616 Y74.287 E3.65407
G1 X162.47 Y74.732 E3.71749
G1 X164.532 Y75.802 E3.79476
G1 X166.012 Y77.397 E3.86713
G1 X167.193 Y79.378 E3.94383
G1 X167.475 Y81.11 E4.0022
G1 X167.55 Y138.766 E5.91985
G1 X167.084 Y140.662 E5.98479
G1 X166.031 Y142.69 E6.06079
G1 X164.47 Y144.149 E6.13185
G1 X162.447 Y145.356 E6.21021
G1 X160.729 Y145.638 E6.26811
G1 X59.397 Y145.712 E9.63843
G1 X57.501 Y145.246 E9.70337
G1 X55.473 Y144.193 E9.77937
G1 X54.014 Y142.632 E9.85043
G1 X52.807 Y140.609 E9.92879
G1 X52.525 Y138.891 E9.98669
G1 X52.45 Y81.235 E11.90434
G1 X52.916 Y79.339 E11.96928
G0 F6000 X53.292 Y79.482
G1 F1200 X54.292 Y77.556 E12.04146
G1 X55.769 Y76.176 E12.10869
G1 X57.693 Y75.028 E12.18321
G1 X59.336 Y74.758 E12.23858
G1 X160.569 Y74.687 E15.60561
G1 X162.33 Y75.11 E15.66585
G1 X164.286 Y76.125 E15.73914
G1 X165.688 Y77.636 E15.8077
G1 X166.81 Y79.518 E15.88057
G1 X167.08 Y81.174 E15.93638
G1 X167.15 Y138.72 E17.85037
G1 X166.708 Y140.519 E17.91198
G1 X165.708 Y142.445 E17.98416
G1 X164.231 Y143.825 E18.05139
G1 X162.307 Y144.973 E18.12591
G1 X160.664 Y145.243 E18.18129
G1 X59.443 Y145.312 E21.54791
G1 X57.644 Y144.87 E21.60953
G1 X55.718 Y143.87 E21.68171
G1 X54.338 Y142.393 E21.74894
G1 X53.19 Y140.469 E21.82346
G1 X52.92 Y138.826 E21.87884
G1 X52.85 Y81.281 E23.79279
G1 X53.292 Y79.482 E23.85441
G0 F6000 X53.669 Y79.624
G1 F1200 X54.615 Y77.801 E23.92272
G1 X56.011 Y76.497 E23.98625
G1 X57.831 Y75.411 E24.05675
G1 X59.401 Y75.153 E24.10966
G1 X160.522 Y75.087 E27.47296
G1 X162.19 Y75.488 E27.53002
G1 X164.04 Y76.448 E27.59934
G1 X165.364 Y77.875 E27.66409
G1 X166.427 Y79.658 E27.73313
G1 X166.685 Y81.238 E27.78638
G1 X166.75 Y138.673 E29.69668
G1 X166.331 Y140.377 E29.75504
G1 X165.385 Y142.2 E29.82335
G1 X163.989 Y143.504 E29.88689
G1 X162.169 Y144.59 E29.95738
G1 X160.599 Y144.848 E30.0103
G1 X59.49 Y144.912 E33.3732
G1 X57.786 Y144.493 E33.43156
G1 X55.963 Y143.547 E33.49987
G1 X54.659 Y142.151 E33.56341
G1 X53.573 Y140.331 E33.6339
G1 X53.315 Y138.761 E33.68682
G1 X53.25 Y81.328 E35.59705
G1 X53.669 Y79.624 E35.65541
G0 F6000 X54.045 Y79.767
G1 F1200 X54.938 Y78.046 E35.7199
G1 X56.253 Y76.818 E35.77974
G1 X57.969 Y75.794 E35.84621
G1 X59.466 Y75.548 E35.89666
G1 X160.474 Y75.487 E39.2562
G1 X162.05 Y75.866 E39.31012
G1 X163.794 Y76.771 E39.37547
G1 X165.04 Y78.114 E39.4364
G1 X166.044 Y79.798 E39.50161
G1 X166.29 Y81.303 E39.55233
G1 X166.35 Y138.627 E41.45893
G1 X165.955 Y140.234 E41.51397
G1 X165.062 Y141.955 E41.57846
G1 X163.747 Y143.183 E41.6383
G1 X162.031 Y144.207 E41.70477
G1 X160.534 Y144.453 E41.75523
G1 X59.536 Y144.512 E45.11443
G1 X57.929 Y144.117 E45.16947
G1 X56.208 Y143.224 E45.23396
G1 X54.98 Y141.909 E45.2938
G1 X53.956 Y140.193 E45.36027
G1 X53.71 Y138.696 E45.41073
G1 X53.65 Y81.374 E47.31726
G1 X54.045 Y79.767 E47.3723
G0 F6000 X54.421 Y79.91
G1 F1200 X55.261 Y78.291 E47.43297
G1 X56.495 Y77.139 E47.48912
G1 X58.107 Y76.177 E47.55155
G1 X59.531 Y75.943 E47.59955
G1 X160.426 Y75.887 E50.95533
G1 X161.91 Y76.244 E51.0061
G1 X163.548 Y77.094 E51.06748
G1 X164.716 Y78.353 E51.1246
G1 X165.661 Y79.938 E51.18597
G1 X165.895 Y81.368 E51.23417
G1 X165.95 Y138.581 E53.13708
G1 X165.579 Y140.091 E53.1888
G1 X164.739 Y141.71 E53.24946
G1 X163.505 Y142.862 E53.30561
G1 X161.893 Y143.824 E53.36805
G1 X160.469 Y144.058 E53.41605
G1 X59.582 Y144.112 E56.77156
G1 X58.072 Y143.741 E56.82328
G1 X56.453 Y142.901 E56.88394
G1 X55.301 Y141.667 E56.94009
G1 X54.339 Y140.055 E57.00253
G1 X54.105 Y138.631 E57.05052
G1 X54.05 Y81.42 E58.95337
G1 X54.421 Y79.91 E59.00509
G0 F6000 X54.798 Y80.052
G1 F1200 X55.584 Y78.536 E59.06188
G1 X56.737 Y77.46 E59.11434
G1 X58.245 Y76.56 E59.17275
G1 X59.596 Y76.338 E59.21828
G1 X160.378 Y76.287 E62.57031
G1 X161.77 Y76.622 E62.61793
G1 X163.302 Y77.417 E62.67533
G1 X164.392 Y78.592 E62.72864
G1 X165.278 Y80.078 E62.78618
G1 X165.5 Y81.433 E62.83185
G1 X165.55 Y138.534 E64.73104
G1 X165.202 Y139.949 E64.77951
G1 X164.416 Y141.465 E64.8363
G1 X163.263 Y142.541 E64.88876
G1 X161.755 Y143.441 E64.94717
G1 X160.404 Y143.663 E64.9927
G1 X59.629 Y143.712 E68.34449
G1 X58.214 Y143.364 E68.39296
G1 X56.698 Y142.578 E68.44976
G1 X55.622 Y141.425 E68.50221
G1 X54.722 Y139.917 E68.56062
G1 X54.5 Y138.566 E68.60616
G1 X54.45 Y81.467 E70.50528
G1 X54.798 Y80.052 E70.55374
G0 F6000 X55.174 Y80.195
G1 F1200 X55.907 Y78.781 E70.60672
G1 X56.979 Y77.781 E70.65548
G1 X58.383 Y76.943 E70.70986
G1 X59.661 Y76.733 E70.75294
G1 X160.33 Y76.687 E74.1012
G1 X161.63 Y77 E74.14567
G1 X163.056 Y77.74 E74.19911
G1 X164.068 Y78.831 E74.2486
G1 X164.895 Y80.218 E74.30231
G1 X165.105 Y81.498 E74.34546
G1 X165.15 Y138.488 E76.24095
G1 X164.826 Y139.806 E76.28609
G1 X164.093 Y141.22 E76.33907
G1 X163.021 Y142.22 E76.38783
G1 X161.617 Y143.058 E76.44221
G1 X160.339 Y143.268 E76.48528
G1 X59.675 Y143.312 E79.83338
G1 X58.357 Y142.988 E79.87853
G1 X56.943 Y142.255 E79.9315
G1 X55.943 Y141.183 E79.98026
G1 X55.105 Y139.779 E80.03464
G1 X54.895 Y138.501 E80.07772
G1 X54.85 Y81.513 E81.97315
G1 X55.174 Y80.195 E82.01829
G0 F6000 X55.55 Y80.338
G1 F1200 X56.229 Y79.028 E82.06736
G1 X57.224 Y78.1 E82.11262
G1 X58.521 Y77.326 E82.16285
G1 X59.726 Y77.128 E82.20347
G1 X160.282 Y77.087 E85.54798
G1 X161.49 Y77.378 E85.5893
G1 X162.81 Y78.063 E85.63877
G1 X163.744 Y79.07 E85.68445
G1 X164.512 Y80.358 E85.73432
G1 X164.71 Y81.563 E85.77494
G1 X164.75 Y138.442 E87.66674
G1 X164.45 Y139.663 E87.70856
G1 X163.771 Y140.973 E87.75764
G1 X162.776 Y141.901 E87.80289
G1 X161.479 Y142.675 E87.85313
G1 X160.274 Y142.873 E87.89374
G1 X59.721 Y142.912 E91.23815
G1 X58.5 Y142.612 E91.27997
G1 X57.19 Y141.933 E91.32904
G1 X56.262 Y140.938 E91.3743
G1 X55.488 Y139.641 E91.42453
G1 X55.29 Y138.436 E91.46515
G1 X55.25 Y81.559 E93.35689
G1 X55.55 Y80.338 E93.39871
G0 F6000 X56.551 Y79.275
G1 F1200 X57.466 Y78.422 E93.44031
G1 X58.661 Y77.709 E93.48659
G1 X59.791 Y77.523 E93.52468
G1 X160.234 Y77.487 E96.86543
G1 X161.35 Y77.756 E96.90361
G1 X162.564 Y78.386 E96.9491
G1 X163.42 Y79.309 E96.99097
G1 X164.129 Y80.498 E97.03702
G1 X164.315 Y81.628 E97.07511
G1 X164.35 Y138.396 E98.96322
G1 X164.074 Y139.52 E99.00171
G1 X163.449 Y140.726 E99.04689
G1 X162.534 Y141.579 E99.0885
G1 X161.339 Y142.292 E99.13478
G1 X160.209 Y142.478 E99.17287
G1 X59.767 Y142.512 E102.51359
G1 X58.643 Y142.236 E102.55208
G1 X57.437 Y141.611 E102.59726
G1 X56.584 Y140.696 E102.63886
G1 X55.871 Y139.501 E102.68515
G1 X55.685 Y138.371 E102.72324
G1 X55.65 Y81.605 E104.61128
G1 X55.926 Y80.481 E104.64978
G1 X56.551 Y79.275 E104.69496
G0 F6000 X57.708 Y78.744
G1 F1200 X58.801 Y78.092 E104.73729
G1 X59.856 Y77.918 E104.77285
G1 X160.186 Y77.887 E108.10984
G1 X161.21 Y78.134 E108.14487
G1 X162.318 Y78.709 E108.18639
G1 X163.096 Y79.548 E108.22445
G1 X163.746 Y80.638 E108.26666
G1 X163.92 Y81.693 E108.30222
G1 X163.95 Y138.349 E110.18661
G1 X163.697 Y139.378 E110.22185
G1 X163.127 Y140.479 E110.26309
G1 X162.292 Y141.257 E110.30105
G1 X161.199 Y141.909 E110.34338
G1 X160.144 Y142.083 E110.37894
G1 X59.814 Y142.112 E113.71593
G1 X58.785 Y141.859 E113.75118
G1 X57.684 Y141.289 E113.79241
G1 X56.906 Y140.454 E113.83037
G1 X56.254 Y139.361 E113.8727
G1 X56.08 Y138.306 E113.90826
G1 X56.05 Y81.652 E115.79258
G1 X56.303 Y80.623 E115.82783
G1 X56.873 Y79.522 E115.86906
G1 X57.708 Y78.744 E115.90702
G0 F6000 X58.941 Y78.475
G1 F1200 X59.921 Y78.313 E115.94006
G1 X160.138 Y78.287 E119.27329
G1 X161.07 Y78.512 E119.30518
G1 X162.072 Y79.032 E119.34273
G1 X162.772 Y79.787 E119.37697
G1 X163.363 Y80.778 E119.41535
G1 X163.525 Y81.758 E119.44839
G1 X163.55 Y138.303 E121.32908
G1 X163.321 Y139.235 E121.361
G1 X162.805 Y140.232 E121.39834
G1 X162.05 Y140.935 E121.43265
G1 X161.059 Y141.526 E121.47103
G1 X160.079 Y141.688 E121.50406
G1 X59.86 Y141.712 E124.83736
G1 X58.928 Y141.483 E124.86928
G1 X57.931 Y140.967 E124.90662
G1 X57.228 Y140.212 E124.94093
G1 X56.637 Y139.221 E124.97931
G1 X56.475 Y138.241 E125.01235
G1 X56.45 Y81.698 E126.89298
G1 X56.679 Y80.766 E126.9249
G1 X57.195 Y79.769 E126.96223
G1 X57.95 Y79.066 E126.99655
G1 X58.941 Y78.475 E127.03492
G0 F6000 X59.986 Y78.708
G1 F1200 X160.09 Y78.687 E130.3644
G1 X160.93 Y78.89 E130.39314
G1 X161.826 Y79.355 E130.42671
G1 X162.448 Y80.026 E130.45714
G1 X162.98 Y80.918 E130.49169
G1 X163.13 Y81.823 E130.5222
G1 X163.15 Y138.257 E132.3992
G1 X162.945 Y139.092 E132.4278
G1 X162.482 Y139.987 E132.46131
G1 X161.811 Y140.611 E132.49179
G1 X160.919 Y141.143 E132.52633
G1 X160.014 Y141.293 E132.55685
G1 X59.906 Y141.312 E135.88645
G1 X59.071 Y141.107 E135.91505
G1 X58.176 Y140.644 E135.94856
G1 X57.552 Y139.973 E135.97904
G1 X57.02 Y139.081 E136.01358
G1 X56.87 Y138.176 E136.0441
G1 X56.85 Y81.744 E137.92103
G1 X57.055 Y80.909 E137.94963
G1 X57.518 Y80.014 E137.98314
G1 X58.189 Y79.39 E138.01362
G1 X59.081 Y78.858 E138.04816
G1 X59.986 Y78.708 E138.07867
G0 F6000 X60.052 Y79.103
G1 F1200 X160.042 Y79.087 E141.40436
G1 X160.79 Y79.268 E141.42995
G1 X161.58 Y79.678 E141.45956
G1 X162.124 Y80.265 E141.48617
G1 X162.597 Y81.058 E141.51689
G1 X162.735 Y81.889 E141.5449
G1 X162.75 Y138.211 E143.41818
G1 X162.569 Y138.949 E143.44345
G1 X162.159 Y139.742 E143.47315
G1 X161.572 Y140.287 E143.49979
G1 X160.779 Y140.76 E143.5305
G1 X159.948 Y140.898 E143.55852
G1 X59.952 Y140.912 E146.8844
G1 X59.214 Y140.731 E146.90967
G1 X58.421 Y140.321 E146.93936
G1 X57.876 Y139.734 E146.966
G1 X57.403 Y138.941 E146.99671
G1 X57.265 Y138.11 E147.02473
G1 X57.25 Y81.79 E148.89794
G1 X57.431 Y81.052 E148.92322
G1 X57.841 Y80.259 E148.95291
G1 X58.428 Y79.714 E148.97955
G1 X59.221 Y79.241 E149.01026
G1 X60.052 Y79.103 E149.03828
G0 F6000 X60.118 Y79.498
G1 F1200 X159.993 Y79.487 E152.36013
G1 X160.65 Y79.646 E152.38262
G1 X161.334 Y80.001 E152.40825
G1 X161.8 Y80.504 E152.43105
G1 X162.214 Y81.198 E152.45793
G1 X162.34 Y81.955 E152.48346
G1 X162.35 Y138.161 E154.35287
G1 X162.191 Y138.81 E154.3751
G1 X161.836 Y139.497 E154.40082
G1 X161.333 Y139.963 E154.42362
G1 X160.639 Y140.377 E154.4505
G1 X159.882 Y140.503 E154.47603
G1 X60.002 Y140.512 E157.79805
G1 X59.353 Y140.353 E157.82027
G1 X58.666 Y139.998 E157.84599
G1 X58.2 Y139.495 E157.8688
G1 X57.786 Y138.801 E157.89568
G1 X57.66 Y138.044 E157.9212
G1 X57.65 Y81.84 E159.79055
G1 X57.809 Y81.191 E159.81278
G1 X58.164 Y80.504 E159.8385
G1 X58.667 Y80.038 E159.8613
G1 X59.361 Y79.624 E159.88818
G1 X60.118 Y79.498 E159.91371
G0 F6000 X60.184 Y79.893
G1 F1200 X159.944 Y79.887 E163.23174
G1 X160.51 Y80.024 E163.25111
G1 X161.088 Y80.324 E163.27277
G1 X161.476 Y80.743 E163.29176
G1 X161.831 Y81.338 E163.3148
G1 X161.945 Y82.021 E163.33783
G1 X161.95 Y138.111 E165.2034
G1 X161.813 Y138.671 E165.22257
G1 X161.513 Y139.251 E165.24429
G1 X161.094 Y139.639 E165.26328
G1 X160.499 Y139.994 E165.28633
G1 X159.816 Y140.108 E165.30936
G1 X60.052 Y140.112 E168.62752
G1 X59.492 Y139.975 E168.6467
G1 X58.912 Y139.675 E168.66842
G1 X58.524 Y139.256 E168.68741
G1 X58.169 Y138.661 E168.71045
G1 X58.055 Y137.978 E168.73348
G1 X58.05 Y81.89 E170.59898
G1 X58.187 Y81.33 E170.61815
G1 X58.487 Y80.75 E170.63987
G1 X58.906 Y80.362 E170.65887
G1 X59.501 Y80.007 E170.68191
G1 X60.184 Y79.893 E170.70494
G0 F6000 X60.25 Y80.288
G1 F1200 X159.895 Y80.287 E174.01915
G1 X160.37 Y80.402 E174.0354
G1 X160.842 Y80.647 E174.05309
G1 X161.155 Y80.985 E174.06841
G1 X161.448 Y81.476 E174.08743
G1 X161.55 Y82.087 E174.10803
G1 X161.55 Y138.061 E175.96974
G1 X161.435 Y138.532 E175.98586
G1 X161.19 Y139.005 E176.00358
G1 X160.852 Y139.318 E176.0189
G1 X160.361 Y139.611 E176.03792
G1 X159.75 Y139.713 E176.05852
G1 X60.102 Y139.712 E179.37283
G1 X59.631 Y139.597 E179.38895
G1 X59.158 Y139.352 E179.40667
G1 X58.845 Y139.014 E179.42199
G1 X58.552 Y138.523 E179.44101
G1 X58.45 Y137.912 E179.46161
G1 X58.45 Y81.94 E181.32325
G1 X58.565 Y81.469 E181.33937
G1 X58.81 Y80.996 E181.35709
G1 X59.148 Y80.683 E181.37241
G1 X59.639 Y80.39 E181.39143
G1 X60.25 Y80.288 E181.41203
G0 F6000 X60.25 Y80.688
G1 F1200 X159.846 Y80.687 E184.72461
G1 X160.23 Y80.78 E184.73775
G1 X160.596 Y80.97 E184.75147
G1 X160.834 Y81.227 E184.76312
G1 X161.065 Y81.614 E184.77811
G1 X161.15 Y82.087 E184.79409
G1 X161.15 Y138.011 E186.65413
G1 X161.057 Y138.393 E186.66721
G1 X160.867 Y138.759 E186.68092
G1 X160.61 Y138.997 E186.69257
G1 X160.223 Y139.228 E186.70756
G1 X159.75 Y139.313 E186.72355
G1 X60.152 Y139.312 E190.03619
G1 X59.77 Y139.219 E190.04927
G1 X59.404 Y139.029 E190.06298
G1 X59.166 Y138.772 E190.07463
G1 X58.935 Y138.385 E190.08962
G1 X58.85 Y137.912 E190.10561
G1 X58.85 Y81.99 E191.96558
G1 X58.943 Y81.608 E191.97866
G1 X59.133 Y81.242 E191.99237
G1 X59.39 Y81.004 E192.00402
G1 X59.777 Y80.773 E192.01901
G1 X60.25 Y80.688 E192.035
G0 F6000 X60.25 Y81.088
G1 F1200 X159.798 Y81.087 E195.34598
G1 X160.088 Y81.157 E195.3559
G1 X160.351 Y81.294 E195.36576
G1 X160.49 Y81.432 E195.37228
G1 X160.685 Y81.759 E195.38494
G1 X160.75 Y82.087 E195.39606
G1 X160.75 Y137.962 E197.25447
G1 X160.68 Y138.251 E197.26436
G1 X160.543 Y138.514 E197.27423
G1 X160.405 Y138.653 E197.28074
G1 X160.078 Y138.848 E197.2934
G1 X159.75 Y138.913 E197.30452
G1 X60.201 Y138.912 E200.61554
G1 X59.912 Y138.842 E200.62543
G1 X59.649 Y138.705 E200.63529
G1 X59.51 Y138.567 E200.64181
G1 X59.315 Y138.24 E200.65447
G1 X59.25 Y137.912 E200.66559
G1 X59.25 Y82.039 E202.52393
G1 X59.32 Y81.75 E202.53382
G1 X59.457 Y81.487 E202.54369
G1 X59.595 Y81.348 E202.5502
G1 X59.922 Y81.153 E202.56286
G1 X60.25 Y81.088 E202.57399
G0 F6000 X60.25 Y81.888
G1 F1200 X159.75 Y81.887 E205.88337
G1 X159.869 Y81.926 E205.88753
G1 X159.95 Y82.087 E205.89353
G1 X159.95 Y137.913 E207.75031
G1 X159.911 Y138.032 E207.75447
G1 X159.75 Y138.113 E207.76047
G1 X60.25 Y138.112 E211.06985
G1 X60.131 Y138.073 E211.07402
G1 X60.05 Y137.912 E211.08001
G1 X60.05 Y82.088 E212.93673
G1 X60.089 Y81.969 E212.94089
G1 X60.25 Y81.888 E212.94689
G0 F6000 X60.25 Y81.488
G1 F1200 X159.75 Y81.487 E216.25627
G1 X159.994 Y81.546 E216.26462
G1 X160.146 Y81.637 E216.27051
G1 X160.307 Y81.907 E216.28097
G1 X160.35 Y82.087 E216.28712
G1 X160.35 Y137.913 E218.1439
G1 X160.291 Y138.157 E218.15225
G1 X160.2 Y138.309 E218.15814
G1 X159.93 Y138.47 E218.1686
G1 X159.75 Y138.513 E218.17475
G1 X60.25 Y138.512 E221.48414
G1 X60.006 Y138.453 E221.49249
G1 X59.854 Y138.362 E221.49838
G1 X59.693 Y138.092 E221.50883
G1 X59.65 Y137.912 E221.51499
G1 X59.65 Y82.088 E223.3717
G1 X59.709 Y81.844 E223.38005
G1 X59.8 Y81.692 E223.38595
G1 X60.07 Y81.531 E223.3964
G1 X60.25 Y81.488 E223.40256
G1 F1500 E216.90256
;MESH:Tampa_receptor_correta.stl
G0 F6000 X61.048 Y82.888
G0 X110 Y137.312
;TYPE:WALL-INNER
G1 F1500 E223.40256
G1 F1200 X159.148 Y137.312 E225.03723
G1 X159.148 Y82.685 E226.85413
G1 X60.848 Y82.688 E230.1236
G1 X60.848 Y137.312 E231.9404
G1 X110 Y137.312 E233.5752
G0 F6000 X110 Y137.712
;TYPE:WALL-OUTER
G1 F1200 X159.548 Y137.712 E235.22317
