;FLAVOR:Marlin
;TIME:25307
;Filament used: 10.1965m
;Layer height: 0.1
;MINX:51.2
;MINY:68.5
;MINZ:0.2
;MAXX:168.8
;MAXY:148.3
;MAXZ:32.5
;TARGET_MACHINE.NAME:Creality Ender-3 Pro
;Generated with Cura_SteamEngine 5.9.0
M82 ;absolute extrusion mode
; Ender 3 Custom Start G-code
G92 E0 ; Reset Extruder
G28 ; Home all axes
G29
G1 Z5.0 F3000 ; Move Z Axis up a bit during heating to not damage bed
M104 S175 ; Start heating up the nozzle most of the way
M190 S65.0 ; Start heating the bed, wait until target temperature reached
M109 S210.0 ; Finish heating the nozzle
G1 Z2.0 F3000 ; Move Z Axis up little to prevent scratching of Heat Bed
G1 X0.1 Y20 Z0.3 F5000.0 ; Move to start position
G1 X0.1 Y200.0 Z0.3 F1500.0 E15 ; Draw the first line
G1 X0.4 Y200.0 Z0.3 F5000.0 ; Move to side a little
G1 X0.4 Y20 Z0.3 F1500.0 E30 ; Draw the second line
G92 E0 ; Reset Extruder
G1 Z2.0 F3000 ; Move Z Axis up little to prevent scratching of Heat Bed
G1 X5 Y20 Z0.3 F5000.0 ; Move over to prevent blob squish
G92 E0
G92 E0
G1 F1500 E-6.5
;LAYER_COUNT:324
;LAYER:0
M107
G0 F6000 X52.719 Y74.723 Z0.2
;TYPE:SKIRT
G1 F1500 E0
G1 F1200 X54.28 Y73.264 E0.07107
G1 X56.303 Y72.057 E0.14942
G1 X58.021 Y71.775 E0.20732
G1 X132.801 Y71.7 E2.69452
G1 X133.101 Y71.333 E2.71028
G1 X134.426 Y70.229 E2.76765
G1 X136.754 Y69.001 E2.85519
G1 X139.244 Y68.5 E2.93966
G1 X142.642 Y68.506 E3.05268
G1 X145.984 Y69.771 E3.17153
G1 X148.259 Y71.7 E3.27074
G1 X161.853 Y71.7 E3.72288
G1 X163.749 Y72.166 E3.78782
G1 X165.777 Y73.219 E3.86382
G1 X167.236 Y74.78 E3.93488
G1 X168.443 Y76.803 E4.01324
G1 X168.725 Y78.521 E4.07114
G1 X168.8 Y141.353 E6.16094
G1 X168.334 Y143.249 E6.22588
G1 X167.281 Y145.277 E6.30188
G1 X165.72 Y146.736 E6.37295
G1 X163.697 Y147.943 E6.4513
G1 X161.979 Y148.225 E6.50921
G1 X58.134 Y148.3 E9.96311
G1 X56.28 Y147.855 E10.02652
G1 X54.218 Y146.785 E10.10379
G1 X52.738 Y145.19 E10.17616
G1 X51.557 Y143.209 E10.25287
G1 X51.275 Y141.477 E10.31123
G1 X51.2 Y78.647 E12.40097
G1 X51.666 Y76.751 E12.46591
G1 X52.719 Y74.723 E12.54191
G0 F6000 X53.042 Y74.968
G1 F1200 X54.519 Y73.588 E12.60914
G1 X56.443 Y72.44 E12.68366
G1 X58.086 Y72.17 E12.73904
G1 X132.991 Y72.1 E15.23039
G1 X133.388 Y71.614 E15.25126
G1 X134.649 Y70.563 E15.30586
G1 X136.89 Y69.382 E15.39011
G1 X139.283 Y68.9 E15.4713
G1 X142.568 Y68.906 E15.58056
G1 X145.778 Y70.121 E15.69472
G1 X147.904 Y71.924 E15.78743
G1 X148.048 Y72.1 E15.795
G1 X161.807 Y72.1 E16.25262
G1 X163.606 Y72.542 E16.31424
G1 X165.532 Y73.542 E16.38642
G1 X166.912 Y75.019 E16.45365
G1 X168.06 Y76.943 E16.52817
G1 X168.33 Y78.586 E16.58355
G1 X168.4 Y141.307 E18.66966
G1 X167.958 Y143.106 E18.73127
G1 X166.958 Y145.032 E18.80345
G1 X165.481 Y146.412 E18.87068
G1 X163.557 Y147.56 E18.9452
G1 X161.914 Y147.83 E19.00058
G1 X58.181 Y147.9 E22.45075
G1 X56.42 Y147.477 E22.51099
G1 X54.464 Y146.462 E22.58428
G1 X53.062 Y144.951 E22.65284
G1 X51.94 Y143.069 E22.72572
G1 X51.67 Y141.413 E22.78152
G1 X51.6 Y78.693 E24.8676
G1 X52.042 Y76.894 E24.92921
G1 X53.042 Y74.968 E25.00139
G0 F6000 X53.365 Y75.213
G1 F1200 X54.761 Y73.909 E25.06493
G1 X56.581 Y72.823 E25.13542
G1 X58.151 Y72.565 E25.18834
G1 X133.181 Y72.5 E27.68385
G1 X133.675 Y71.895 E27.70983
G1 X134.87 Y70.899 E27.76157
G1 X137.027 Y69.762 E27.84267
G1 X139.322 Y69.3 E27.92053
G1 X142.494 Y69.306 E28.02603
G1 X145.572 Y70.471 E28.13549
G1 X147.645 Y72.229 E28.2259
G1 X147.848 Y72.5 E28.23716
G1 X161.76 Y72.5 E28.69987
G1 X163.464 Y72.919 E28.75824
G1 X165.287 Y73.865 E28.82655
G1 X166.591 Y75.261 E28.89008
G1 X167.677 Y77.081 E28.96058
G1 X167.935 Y78.651 E29.01349
G1 X168 Y141.26 E31.09588
G1 X167.581 Y142.964 E31.15424
G1 X166.635 Y144.787 E31.22255
G1 X165.239 Y146.091 E31.28609
G1 X163.419 Y147.177 E31.35658
G1 X161.849 Y147.435 E31.4095
G1 X58.228 Y147.5 E34.85595
G1 X56.56 Y147.099 E34.91301
G1 X54.71 Y146.139 E34.98233
G1 X53.386 Y144.712 E35.04708
G1 X52.323 Y142.929 E35.11612
G1 X52.065 Y141.349 E35.16936
G1 X52 Y78.74 E37.25175
G1 X52.419 Y77.036 E37.31011
G1 X53.365 Y75.213 E37.37842
G0 F6000 X53.688 Y75.458
G1 F1200 X55.003 Y74.23 E37.43827
G1 X56.719 Y73.206 E37.50473
G1 X58.216 Y72.96 E37.55519
G1 X133.371 Y72.9 E40.05485
G1 X133.962 Y72.176 E40.08594
G1 X135.091 Y71.235 E40.13482
G1 X137.164 Y70.142 E40.21277
G1 X139.361 Y69.7 E40.2873
G1 X142.42 Y69.706 E40.38905
G1 X145.366 Y70.821 E40.49381
G1 X147.386 Y72.534 E40.58191
G1 X147.637 Y72.9 E40.59667
G1 X161.714 Y72.9 E41.06487
G1 X163.321 Y73.295 E41.11991
G1 X165.042 Y74.188 E41.1844
G1 X166.27 Y75.503 E41.24424
G1 X167.294 Y77.219 E41.3107
G1 X167.54 Y78.716 E41.36116
G1 X167.6 Y141.214 E43.43985
G1 X167.205 Y142.821 E43.49489
G1 X166.312 Y144.542 E43.55938
G1 X164.997 Y145.77 E43.61922
G1 X163.281 Y146.794 E43.68569
G1 X161.784 Y147.04 E43.73615
G1 X58.276 Y147.1 E47.17884
G1 X56.7 Y146.721 E47.23275
G1 X54.956 Y145.816 E47.2981
G1 X53.71 Y144.473 E47.35903
G1 X52.706 Y142.789 E47.42424
G1 X52.46 Y141.284 E47.47496
G1 X52.4 Y78.786 E49.55366
G1 X52.795 Y77.179 E49.6087
G1 X53.688 Y75.458 E49.67318
G0 F6000 X54.011 Y75.703
G1 F1200 X55.245 Y74.551 E49.72933
G1 X56.857 Y73.589 E49.79177
G1 X58.281 Y73.355 E49.83977
G1 X133.561 Y73.3 E52.34359
G1 X134.249 Y72.457 E52.37978
G1 X135.314 Y71.569 E52.4259
G1 X137.299 Y70.523 E52.50053
G1 X139.4 Y70.1 E52.57181
G1 X142.346 Y70.106 E52.66979
G1 X145.16 Y71.171 E52.76987
G1 X147.087 Y72.805 E52.8539
G1 X147.426 Y73.3 E52.87385
G1 X161.668 Y73.3 E53.34754
G1 X163.178 Y73.671 E53.39926
G1 X164.797 Y74.511 E53.45992
G1 X165.949 Y75.745 E53.51607
G1 X166.911 Y77.357 E53.57851
G1 X167.145 Y78.781 E53.62651
G1 X167.2 Y141.168 E55.70151
G1 X166.829 Y142.678 E55.75322
G1 X165.989 Y144.297 E55.81389
G1 X164.755 Y145.449 E55.87004
G1 X163.143 Y146.411 E55.93247
G1 X161.719 Y146.645 E55.98047
G1 X58.324 Y146.7 E59.4194
G1 X56.84 Y146.343 E59.47017
G1 X55.202 Y145.493 E59.53155
G1 X54.034 Y144.234 E59.58867
G1 X53.089 Y142.649 E59.65004
G1 X52.855 Y141.219 E59.69824
G1 X52.8 Y78.832 E61.77324
G1 X53.171 Y77.322 E61.82496
G1 X54.011 Y75.703 E61.88562
G0 F6000 X54.334 Y75.948
G1 F1200 X55.487 Y74.872 E61.93807
G1 X56.995 Y73.972 E61.99648
G1 X58.346 Y73.75 E62.04202
G1 X133.751 Y73.7 E64.55
G1 X134.536 Y72.738 E64.5913
G1 X135.535 Y71.905 E64.63456
G1 X137.436 Y70.903 E64.70604
G1 X139.439 Y70.5 E64.77399
G1 X142.272 Y70.506 E64.86822
G1 X144.954 Y71.521 E64.96359
G1 X146.788 Y73.076 E65.04357
G1 X147.215 Y73.7 E65.06872
G1 X161.621 Y73.7 E65.54786
G1 X163.036 Y74.048 E65.59633
G1 X164.552 Y74.834 E65.65312
G1 X165.628 Y75.987 E65.70558
G1 X166.528 Y77.495 E65.76399
G1 X166.75 Y78.846 E65.80952
G1 X166.8 Y141.121 E67.8808
G1 X166.452 Y142.536 E67.92927
G1 X165.666 Y144.052 E67.98606
G1 X164.513 Y145.128 E68.03852
G1 X163.005 Y146.028 E68.09693
G1 X161.654 Y146.25 E68.14246
G1 X58.372 Y146.3 E71.57764
G1 X56.98 Y145.965 E71.62526
G1 X55.448 Y145.17 E71.68266
G1 X54.358 Y143.995 E71.73597
G1 X53.472 Y142.509 E71.79351
G1 X53.25 Y141.154 E71.83918
G1 X53.2 Y78.879 E73.91046
G1 X53.548 Y77.464 E73.95892
G1 X54.334 Y75.948 E74.01572
G0 F6000 X54.657 Y76.193
G1 F1200 X55.729 Y75.193 E74.06448
G1 X57.133 Y74.355 E74.11886
G1 X58.411 Y74.145 E74.16194
G1 X133.941 Y74.1 E76.67408
G1 X134.823 Y73.019 E76.72048
G1 X135.758 Y72.239 E76.76098
G1 X137.571 Y71.284 E76.82913
G1 X139.478 Y70.9 E76.89383
G1 X142.198 Y70.906 E76.9843
G1 X144.748 Y71.871 E77.07498
G1 X146.489 Y73.347 E77.1509
G1 X147.004 Y74.1 E77.18124
G1 X161.575 Y74.1 E77.66588
G1 X162.893 Y74.424 E77.71102
G1 X164.307 Y75.157 E77.76399
G1 X165.307 Y76.229 E77.81275
G1 X166.145 Y77.633 E77.86713
G1 X166.355 Y78.911 E77.91021
G1 X166.4 Y141.075 E79.97779
G1 X166.076 Y142.393 E80.02294
G1 X165.343 Y143.807 E80.07591
G1 X164.271 Y144.807 E80.12467
G1 X162.867 Y145.645 E80.17905
G1 X161.589 Y145.855 E80.22213
G1 X58.42 Y145.9 E83.65354
G1 X57.12 Y145.587 E83.69802
G1 X55.694 Y144.847 E83.75145
G1 X54.682 Y143.756 E83.80095
G1 X53.855 Y142.369 E83.85465
G1 X53.645 Y141.089 E83.8978
G1 X53.6 Y78.925 E85.96538
G1 X53.924 Y77.607 E86.01052
G1 X54.657 Y76.193 E86.0635
G0 F6000 X55.974 Y75.512
G1 F1200 X57.271 Y74.738 E86.11373
G1 X58.476 Y74.54 E86.15435
G1 X134.131 Y74.5 E88.67064
G1 X135.11 Y73.3 E88.72215
G1 X135.981 Y72.573 E88.75989
G1 X137.706 Y71.665 E88.82472
G1 X139.517 Y71.3 E88.88617
G1 X142.124 Y71.306 E88.97288
G1 X144.542 Y72.221 E89.05887
G1 X146.19 Y73.618 E89.13072
G1 X146.793 Y74.5 E89.16626
G1 X161.529 Y74.5 E89.65638
G1 X162.75 Y74.8 E89.6982
G1 X164.06 Y75.479 E89.74728
G1 X164.988 Y76.474 E89.79253
G1 X165.762 Y77.771 E89.84277
G1 X165.96 Y78.976 E89.88338
G1 X166 Y141.029 E91.94727
G1 X165.7 Y142.25 E91.98909
G1 X165.021 Y143.56 E92.03817
G1 X164.026 Y144.488 E92.08342
G1 X162.729 Y145.262 E92.13366
G1 X161.524 Y145.46 E92.17427
G1 X58.468 Y145.5 E95.60193
G1 X57.26 Y145.209 E95.64326
G1 X55.94 Y144.524 E95.69272
G1 X55.006 Y143.517 E95.7384
G1 X54.238 Y142.229 E95.78828
G1 X54.04 Y141.024 E95.82889
G1 X54 Y78.971 E97.89279
G1 X54.3 Y77.75 E97.9346
G1 X54.979 Y76.44 E97.98368
G1 X55.974 Y75.512 E98.02893
G0 F6000 X57.411 Y75.121
G1 F1200 X58.541 Y74.935 E98.06702
G1 X134.321 Y74.9 E100.58748
G1 X135.397 Y73.581 E100.64409
G1 X136.204 Y72.907 E100.67906
G1 X137.841 Y72.046 E100.74058
G1 X139.556 Y71.7 E100.79877
G1 X142.05 Y71.706 E100.88172
G1 X144.336 Y72.571 E100.96302
G1 X145.891 Y73.889 E101.03081
G1 X146.582 Y74.9 E101.07154
G1 X161.483 Y74.9 E101.56715
G1 X162.607 Y75.176 E101.60565
G1 X163.813 Y75.801 E101.65083
G1 X164.666 Y76.716 E101.69243
G1 X165.379 Y77.911 E101.73872
G1 X165.565 Y79.041 E101.77681
G1 X165.6 Y140.983 E103.83701
G1 X165.324 Y142.107 E103.8755
G1 X164.699 Y143.313 E103.92068
G1 X163.784 Y144.166 E103.96228
G1 X162.589 Y144.879 E104.00857
G1 X161.459 Y145.065 E104.04666
G1 X58.516 Y145.1 E107.47056
G1 X57.4 Y144.831 E107.50874
G1 X56.186 Y144.201 E107.55423
G1 X55.33 Y143.278 E107.5961
G1 X54.621 Y142.089 E107.64214
G1 X54.435 Y140.959 E107.68023
G1 X54.4 Y79.017 E109.74043
G1 X54.676 Y77.893 E109.77892
G1 X55.301 Y76.687 E109.8241
G1 X56.216 Y75.834 E109.86571
G1 X57.411 Y75.121 E109.91199
G0 F6000 X58.606 Y75.33
G1 F1200 X134.547 Y75.3 E112.4378
G1 X134.626 Y75.159 E112.44318
G1 X135.684 Y73.862 E112.49885
G1 X136.427 Y73.242 E112.53103
G1 X137.976 Y72.427 E112.58925
G1 X139.595 Y72.1 E112.64418
G1 X141.976 Y72.106 E112.72338
G1 X144.13 Y72.921 E112.79998
G1 X145.592 Y74.16 E112.86372
G1 X146.371 Y75.3 E112.90964
G1 X161.436 Y75.3 E113.4107
G1 X162.465 Y75.553 E113.44595
G1 X163.566 Y76.123 E113.48718
G1 X164.344 Y76.958 E113.52514
G1 X164.996 Y78.051 E113.56747
G1 X165.17 Y79.106 E113.60303
G1 X165.2 Y140.936 E115.65951
G1 X164.947 Y141.965 E115.69475
G1 X164.377 Y143.066 E115.73599
G1 X163.542 Y143.844 E115.77395
G1 X162.449 Y144.496 E115.81628
G1 X161.394 Y144.67 E115.85184
G1 X58.564 Y144.7 E119.27198
G1 X57.54 Y144.453 E119.30702
G1 X56.432 Y143.878 E119.34854
G1 X55.654 Y143.039 E119.38659
G1 X55.004 Y141.949 E119.4288
G1 X54.83 Y140.894 E119.46437
G1 X54.8 Y79.064 E121.52084
G1 X55.053 Y78.035 E121.55608
G1 X55.623 Y76.934 E121.59732
G1 X56.458 Y76.156 E121.63528
G1 X57.551 Y75.504 E121.67761
G1 X58.606 Y75.33 E121.71317
G0 F6000 X58.671 Y75.725
G1 F1200 X134.805 Y75.7 E124.2454
G1 X134.936 Y75.412 E124.25592
G1 X135.971 Y74.143 E124.31039
G1 X136.65 Y73.577 E124.33979
G1 X138.111 Y72.808 E124.3947
G1 X139.634 Y72.5 E124.44638
G1 X141.902 Y72.506 E124.52182
G1 X143.924 Y73.271 E124.59372
G1 X145.293 Y74.431 E124.6534
G1 X146.16 Y75.7 E124.70452
G1 X161.39 Y75.7 E125.21107
G1 X162.322 Y75.929 E125.24299
G1 X163.319 Y76.445 E125.28033
G1 X164.022 Y77.2 E125.31464
G1 X164.613 Y78.191 E125.35302
G1 X164.775 Y79.171 E125.38606
G1 X164.8 Y140.89 E127.43884
G1 X164.571 Y141.822 E127.47076
G1 X164.055 Y142.819 E127.5081
G1 X163.3 Y143.522 E127.54241
G1 X162.309 Y144.113 E127.58079
G1 X161.329 Y144.275 E127.61382
G1 X58.612 Y144.3 E131.03021
G1 X57.68 Y144.075 E131.06209
G1 X56.678 Y143.555 E131.09964
G1 X55.978 Y142.8 E131.13389
G1 X55.387 Y141.809 E131.17226
G1 X55.225 Y140.829 E131.2053
G1 X55.2 Y79.11 E133.25808
G1 X55.429 Y78.178 E133.29
G1 X55.945 Y77.181 E133.32734
G1 X56.7 Y76.478 E133.36165
G1 X57.691 Y75.887 E133.40003
G1 X58.671 Y75.725 E133.43307
G0 F6000 X58.736 Y76.12
G1 F1200 X135.083 Y76.1 E135.97238
G1 X135.246 Y75.665 E135.98783
G1 X136.258 Y74.424 E136.04109
G1 X136.873 Y73.912 E136.06771
G1 X138.247 Y73.189 E136.11935
G1 X139.673 Y72.9 E136.16774
G1 X141.829 Y72.906 E136.23945
G1 X143.717 Y73.62 E136.30658
G1 X144.994 Y74.702 E136.36225
G1 X145.768 Y75.835 E136.40789
G1 X145.898 Y76.1 E136.41771
G1 X161.344 Y76.1 E136.93144
G1 X162.179 Y76.305 E136.96004
G1 X163.074 Y76.768 E136.99356
G1 X163.698 Y77.439 E137.02403
G1 X164.23 Y78.331 E137.05858
G1 X164.38 Y79.236 E137.08909
G1 X164.4 Y140.844 E139.13818
G1 X164.195 Y141.679 E139.16677
G1 X163.732 Y142.574 E139.20029
G1 X163.061 Y143.198 E139.23077
G1 X162.169 Y143.73 E139.26531
G1 X161.264 Y143.88 E139.29582
G1 X58.66 Y143.9 E142.70844
G1 X57.82 Y143.697 E142.73719
G1 X56.924 Y143.232 E142.77076
G1 X56.302 Y142.561 E142.80119
G1 X55.77 Y141.669 E142.83574
G1 X55.62 Y140.764 E142.86625
G1 X55.6 Y79.156 E144.91534
G1 X55.805 Y78.321 E144.94394
G1 X56.268 Y77.426 E144.97745
G1 X56.939 Y76.802 E145.00793
G1 X57.831 Y76.27 E145.04247
G1 X58.736 Y76.12 E145.07298
G0 F6000 X58.802 Y76.515
G1 F1200 X135.361 Y76.5 E147.61935
G1 X135.598 Y75.867 E147.64183
G1 X136.542 Y74.708 E147.69154
G1 X137.099 Y74.245 E147.71563
G1 X138.382 Y73.57 E147.76385
G1 X139.713 Y73.3 E147.80902
G1 X141.756 Y73.306 E147.87697
G1 X143.51 Y73.969 E147.93934
G1 X144.695 Y74.973 E147.991
G1 X145.438 Y76.061 E148.03482
G1 X145.646 Y76.5 E148.05098
G1 X161.298 Y76.5 E148.57156
G1 X162.036 Y76.681 E148.59684
G1 X162.829 Y77.091 E148.62653
G1 X163.374 Y77.678 E148.65317
G1 X163.847 Y78.471 E148.68388
G1 X163.985 Y79.302 E148.7119
G1 X164 Y140.798 E150.75726
G1 X163.819 Y141.536 E150.78254
G1 X163.409 Y142.329 E150.81223
G1 X162.822 Y142.874 E150.83887
G1 X162.029 Y143.347 E150.86958
G1 X161.198 Y143.485 E150.8976
G1 X58.708 Y143.5 E154.30643
G1 X57.96 Y143.319 E154.33203
G1 X57.17 Y142.909 E154.36163
G1 X56.626 Y142.322 E154.38825
G1 X56.153 Y141.529 E154.41896
G1 X56.015 Y140.698 E154.44698
G1 X56 Y79.202 E156.49234
G1 X56.181 Y78.464 E156.51762
G1 X56.591 Y77.671 E156.54731
G1 X57.178 Y77.126 E156.57395
G1 X57.971 Y76.653 E156.60466
G1 X58.802 Y76.515 E156.63268
G0 F6000 X58.868 Y76.91
G1 F1200 X135.639 Y76.9 E159.18609
G1 X135.951 Y76.067 E159.21568
G1 X136.824 Y74.994 E159.26168
G1 X137.325 Y74.578 E159.28334
G1 X138.517 Y73.951 E159.32814
G1 X139.753 Y73.7 E159.37009
G1 X141.683 Y73.706 E159.43428
G1 X143.303 Y74.318 E159.49188
G1 X144.396 Y75.244 E159.53952
G1 X145.076 Y76.232 E159.57942
G1 X145.392 Y76.9 E159.604
G1 X161.248 Y76.9 E160.13137
G1 X161.897 Y77.059 E160.15359
G1 X162.584 Y77.414 E160.17931
G1 X163.05 Y77.917 E160.20212
G1 X163.464 Y78.611 E160.229
G1 X163.59 Y79.368 E160.25452
G1 X163.6 Y140.748 E162.29603
G1 X163.441 Y141.397 E162.31825
G1 X163.086 Y142.084 E162.34397
G1 X162.583 Y142.55 E162.36678
G1 X161.889 Y142.964 E162.39366
G1 X161.132 Y143.09 E162.41918
G1 X58.757 Y143.1 E165.82419
G1 X58.1 Y142.941 E165.84667
G1 X57.416 Y142.586 E165.8723
G1 X56.95 Y142.083 E165.89511
G1 X56.536 Y141.389 E165.92198
G1 X56.41 Y140.632 E165.94751
G1 X56.4 Y79.252 E167.98902
G1 X56.559 Y78.603 E168.01124
G1 X56.914 Y77.916 E168.03696
G1 X57.417 Y77.45 E168.05977
G1 X58.111 Y77.036 E168.08664
G1 X58.868 Y76.91 E168.11217
G0 F6000 X58.934 Y77.305
G1 F1200 X135.917 Y77.3 E170.67263
G1 X136.304 Y76.267 E170.70932
G1 X137.108 Y75.278 E170.75171
G1 X137.548 Y74.913 E170.77073
G1 X138.652 Y74.332 E170.81222
G1 X139.793 Y74.1 E170.85095
G1 X141.61 Y74.106 E170.91138
G1 X143.098 Y74.668 E170.96429
G1 X144.095 Y75.512 E171.00773
G1 X144.714 Y76.403 E171.04382
G1 X145.138 Y77.3 E171.07682
G1 X161.198 Y77.3 E171.61097
G1 X161.758 Y77.437 E171.63015
G1 X162.338 Y77.737 E171.65187
G1 X162.726 Y78.156 E171.67086
G1 X163.081 Y78.751 E171.69391
G1 X163.195 Y79.434 E171.71694
G1 X163.2 Y140.698 E173.75459
