;FLAVOR:Marlin
;TIME:3720
;Filament used: 2.48555m
;Layer height: 0.2
;MINX:69.288
;MINY:62.097
;MINZ:0.2
;MAXX:151.288
;MAXY:144.097
;MAXZ:3
;TARGET_MACHINE.NAME:Creality Ender-3 Pro
;Generated with Cura_SteamEngine 5.9.0
M82 ;absolute extrusion mode
; Ender 3 Custom Start G-code
G92 E0 ; Reset Extruder
G28 ; Home all axes
G29
G1 Z5.0 F3000 ; Move Z Axis up a bit during heating to not damage bed
M104 S175 ; Start heating up the nozzle most of the way
M190 S60 ; Start heating the bed, wait until target temperature reached
M109 S200 ; Finish heating the nozzle
G1 Z2.0 F3000 ; Move Z Axis up little to prevent scratching of Heat Bed
G1 X0.1 Y20 Z0.3 F5000.0 ; Move to start position
G1 X0.1 Y200.0 Z0.3 F1500.0 E15 ; Draw the first line
G1 X0.4 Y200.0 Z0.3 F5000.0 ; Move to side a little
G1 X0.4 Y20 Z0.3 F1500.0 E30 ; Draw the second line
G92 E0 ; Reset Extruder
G1 Z2.0 F3000 ; Move Z Axis up little to prevent scratching of Heat Bed
G1 X5 Y20 Z0.3 F5000.0 ; Move over to prevent blob squish
G92 E0
G92 E0
G1 F1500 E-6.5
;LAYER_COUNT:15
;LAYER:0
M107
G0 F6000 X69.734 Y70.04 Z0.2
;TYPE:SKIRT
G1 F1500 E0
G1 F1200 X70.047 Y69.117 E0.03242
G1 X70.439 Y68.227 E0.06476
G1 X70.909 Y67.374 E0.09715
G1 X71.452 Y66.566 E0.12953
G1 X72.019 Y65.862 E0.1596
G1 X72.744 Y65.11 E0.19434
G1 X73.48 Y64.473 E0.22672
G1 X74.212 Y63.943 E0.25677
G1 X75.109 Y63.408 E0.29151
G1 X75.987 Y62.987 E0.3239
G1 X76.9 Y62.645 E0.35632
G1 X77.837 Y62.386 E0.38866
G1 X78.804 Y62.208 E0.42136
G1 X79.943 Y62.112 E0.45938
G1 X80.6 Y62.097 E0.48124
G1 X139.592 Y62.097 E2.44332
G1 X140.472 Y62.11 E2.47259
G1 X141.444 Y62.169 E2.50498
G1 X142.407 Y62.315 E2.53737
G1 X143.354 Y62.546 E2.56979
G1 X144.242 Y62.846 E2.60097
G1 X145.134 Y63.236 E2.63335
G1 X146.017 Y63.723 E2.66689
G1 X146.768 Y64.225 E2.69693
G1 X147.583 Y64.883 E2.73177
G1 X148.281 Y65.561 E2.76414
G1 X148.917 Y66.298 E2.79652
G1 X149.487 Y67.088 E2.82892
G1 X149.949 Y67.864 E2.85895
G1 X150.403 Y68.806 E2.89373
G1 X150.732 Y69.684 E2.92492
G1 X151.001 Y70.656 E2.95846
G1 X151.178 Y71.622 E2.99113
G1 X151.273 Y72.752 E3.02884
G1 X151.288 Y73.427 E3.0513
G1 X151.287 Y132.497 E5.01598
G1 X151.276 Y133.26 E5.04136
G1 X151.219 Y134.233 E5.07377
G1 X151.074 Y135.196 E5.10617
G1 X150.845 Y136.142 E5.13854
G1 X150.534 Y137.066 E5.17096
G1 X150.142 Y137.957 E5.20334
G1 X149.674 Y138.809 E5.23567
G1 X149.152 Y139.59 E5.26692
G1 X148.519 Y140.375 E5.30046
G1 X147.894 Y141.026 E5.33047
G1 X147.105 Y141.714 E5.36529
G1 X146.345 Y142.264 E5.39649
G1 X145.478 Y142.781 E5.43007
G1 X144.6 Y143.203 E5.46247
G1 X143.689 Y143.545 E5.49483
G1 X142.75 Y143.806 E5.52725
G1 X141.784 Y143.984 E5.55992
G1 X140.633 Y144.082 E5.59834
G1 X139.958 Y144.097 E5.62079
G1 X80.852 Y144.096 E7.58667
G1 X80.119 Y144.085 E7.61105
G1 X79.147 Y144.028 E7.64343
G1 X78.184 Y143.882 E7.67583
G1 X77.238 Y143.653 E7.7082
G1 X76.314 Y143.341 E7.74064
G1 X75.424 Y142.949 E7.77299
G1 X74.601 Y142.498 E7.8042
G1 X73.762 Y141.937 E7.83777
G1 X73.058 Y141.371 E7.86781
G1 X72.305 Y140.646 E7.90258
G1 X71.668 Y139.91 E7.93495
G1 X71.138 Y139.179 E7.96498
G1 X70.602 Y138.282 E7.99974
G1 X70.18 Y137.404 E8.03214
G1 X69.838 Y136.492 E8.06454
G1 X69.578 Y135.554 E8.09691
G1 X69.4 Y134.585 E8.12968
G1 X69.302 Y133.406 E8.16903
G1 X69.288 Y132.755 E8.19068
G1 X69.289 Y73.622 E10.15746
G1 X69.3 Y72.922 E10.18074
G1 X69.358 Y71.949 E10.21316
G1 X69.504 Y70.986 E10.24556
G1 X69.734 Y70.04 E10.27794
G0 F6000 X70.413 Y69.278
G1 F1200 X70.79 Y68.419 E10.30914
G1 X71.241 Y67.597 E10.34032
G1 X71.764 Y66.817 E10.37156
G1 X72.331 Y66.113 E10.40162
G1 X73.006 Y65.412 E10.43399
G1 X73.715 Y64.797 E10.46521
G1 X74.447 Y64.267 E10.49526
G1 X75.283 Y63.768 E10.52765
G1 X76.128 Y63.361 E10.55884
G1 X77.007 Y63.03 E10.59008
G1 X77.91 Y62.779 E10.62125
G1 X78.838 Y62.607 E10.65265
G1 X79.977 Y62.511 E10.69066
G1 X80.609 Y62.497 E10.71169
G1 X139.586 Y62.497 E12.67327
G1 X140.448 Y62.509 E12.70194
G1 X141.385 Y62.565 E12.73316
G1 X142.313 Y62.704 E12.76437
G1 X143.226 Y62.925 E12.79562
G1 X144.082 Y63.213 E12.82566
G1 X144.974 Y63.603 E12.85804
G1 X145.795 Y64.056 E12.88922
G1 X146.546 Y64.558 E12.91927
G1 X147.305 Y65.17 E12.9517
G1 X147.979 Y65.823 E12.98291
G1 X148.593 Y66.532 E13.01411
G1 X149.143 Y67.293 E13.04534
G1 X149.605 Y68.069 E13.07537
G1 X150.028 Y68.946 E13.10776
G1 X150.357 Y69.824 E13.13894
G1 X150.608 Y70.729 E13.17018
G1 X150.779 Y71.656 E13.20153
G1 X150.874 Y72.786 E13.23925
G1 X150.888 Y73.427 E13.26057
G1 X150.887 Y132.492 E15.22508
G1 X150.877 Y133.237 E15.24986
G1 X150.823 Y134.174 E15.28108
G1 X150.685 Y135.103 E15.31232
G1 X150.466 Y136.015 E15.34351
G1 X150.168 Y136.905 E15.37473
G1 X149.791 Y137.765 E15.40596
G1 X149.341 Y138.587 E15.43713
G1 X148.819 Y139.368 E15.46837
G1 X148.23 Y140.098 E15.49957
G1 X147.605 Y140.749 E15.52959
G1 X146.87 Y141.39 E15.56203
G1 X146.11 Y141.94 E15.59323
G1 X145.304 Y142.421 E15.62445
G1 X144.459 Y142.829 E15.65566
G1 X143.581 Y143.16 E15.68686
G1 X142.677 Y143.413 E15.71809
G1 X141.75 Y143.585 E15.74945
G1 X140.599 Y143.683 E15.78787
G1 X139.958 Y143.697 E15.80919
G1 X80.858 Y143.696 E17.77486
G1 X80.142 Y143.686 E17.79868
G1 X79.206 Y143.632 E17.82986
G1 X78.277 Y143.493 E17.86111
G1 X77.365 Y143.274 E17.8923
G1 X76.475 Y142.975 E17.92353
G1 X75.616 Y142.598 E17.95473
G1 X74.793 Y142.147 E17.98594
G1 X74.013 Y141.625 E18.01716
G1 X73.309 Y141.059 E18.04721
G1 X72.607 Y140.384 E18.0796
G1 X71.992 Y139.675 E18.11081
G1 X71.462 Y138.944 E18.14084
G1 X70.962 Y138.108 E18.17324
G1 X70.554 Y137.263 E18.20445
G1 X70.223 Y136.385 E18.23566
G1 X69.971 Y135.481 E18.26688
G1 X69.799 Y134.552 E18.2983
G1 X69.701 Y133.373 E18.33765
G1 X69.688 Y132.755 E18.35821
G1 X69.689 Y73.628 E20.32478
G1 X69.699 Y72.945 E20.3475
G1 X69.754 Y72.008 E20.37872
G1 X69.893 Y71.08 E20.40993
G1 X70.113 Y70.168 E20.44113
G1 X70.413 Y69.278 E20.47237
G0 F6000 X71.141 Y68.611
G1 F1200 X71.574 Y67.819 E20.50239
G1 X72.076 Y67.068 E20.53243
G1 X72.643 Y66.364 E20.5625
G1 X73.269 Y65.714 E20.59251
G1 X73.95 Y65.121 E20.62255
G1 X74.682 Y64.591 E20.65261
G1 X75.457 Y64.128 E20.68263
G1 X76.27 Y63.735 E20.71267
G1 X77.115 Y63.415 E20.74272
G1 X77.984 Y63.172 E20.77273
G1 X78.872 Y63.006 E20.80278
G1 X80.011 Y62.91 E20.8408
G1 X80.618 Y62.897 E20.86099
G1 X139.581 Y62.897 E22.82211
G1 X140.425 Y62.908 E22.85018
G1 X141.327 Y62.961 E22.88023
G1 X142.22 Y63.093 E22.91026
G1 X143.098 Y63.304 E22.94029
G1 X143.954 Y63.592 E22.97033
G1 X144.781 Y63.954 E23.00036
G1 X145.573 Y64.389 E23.03041
G1 X146.324 Y64.891 E23.06045
G1 X147.027 Y65.458 E23.09049
G1 X147.677 Y66.085 E23.12053
G1 X148.269 Y66.767 E23.15057
G1 X148.799 Y67.498 E23.1806
G1 X149.261 Y68.274 E23.21064
G1 X149.654 Y69.087 E23.24067
G1 X149.972 Y69.932 E23.2707
G1 X150.215 Y70.802 E23.30074
G1 X150.38 Y71.69 E23.33079
G1 X150.475 Y72.82 E23.3685
G1 X150.488 Y73.427 E23.3887
G1 X150.487 Y132.487 E25.35304
G1 X150.478 Y133.214 E25.37722
G1 X150.427 Y134.116 E25.40727
G1 X150.296 Y135.01 E25.43732
G1 X150.087 Y135.888 E25.46734
G1 X149.801 Y136.745 E25.49739
G1 X149.44 Y137.573 E25.52743
G1 X149.008 Y138.365 E25.55744
G1 X148.507 Y139.117 E25.58749
G1 X147.941 Y139.821 E25.61754
G1 X147.316 Y140.472 E25.64755
G1 X146.635 Y141.066 E25.67761
G1 X145.904 Y141.597 E25.70766
G1 X145.13 Y142.061 E25.73767
G1 X144.317 Y142.455 E25.76772
G1 X143.473 Y142.775 E25.79774
G1 X142.603 Y143.02 E25.82781
G1 X141.716 Y143.186 E25.85782
G1 X140.565 Y143.284 E25.89624
G1 X139.958 Y143.297 E25.91643
G1 X80.863 Y143.296 E27.88194
G1 X80.165 Y143.287 E27.90516
G1 X79.264 Y143.236 E27.93517
G1 X78.37 Y143.104 E27.96523
G1 X77.492 Y142.895 E27.99525
G1 X76.635 Y142.608 E28.02531
G1 X75.808 Y142.247 E28.05532
G1 X75.015 Y141.814 E28.08537
G1 X74.264 Y141.313 E28.1154
G1 X73.56 Y140.747 E28.14544
G1 X72.909 Y140.121 E28.17548
G1 X72.316 Y139.44 E28.20552
G1 X71.786 Y138.709 E28.23555
G1 X71.322 Y137.934 E28.26559
G1 X70.928 Y137.121 E28.29564
G1 X70.608 Y136.277 E28.32566
G1 X70.364 Y135.407 E28.35571
G1 X70.198 Y134.519 E28.38576
G1 X70.101 Y133.364 E28.42431
G1 X70.088 Y132.755 E28.44457
G1 X70.089 Y73.633 E30.41098
G1 X70.098 Y72.968 E30.4331
G1 X70.15 Y72.066 E30.46315
G1 X70.282 Y71.173 E30.49317
G1 X70.492 Y70.295 E30.5232
G1 X70.779 Y69.438 E30.55326
G1 X71.141 Y68.611 E30.58328
G1 F1500 E24.08328
;MESH:Transmissor - Push Button.stl
G0 F6000 X83.153 Y77.016
G0 X85.733 Y81.264
;TYPE:WALL-INNER
G1 F1500 E30.58328
G1 F1200 X85.01 Y81.179 E30.6075
G1 X84.345 Y80.903 E30.63144
G1 X83.754 Y80.46 E30.65601
G1 X83.313 Y79.891 E30.67995
G1 X83.03 Y79.21 E30.70448
G1 X82.944 Y78.5 E30.72827
G1 X83.031 Y77.778 E30.75246
G1 X83.308 Y77.11 E30.77651
G1 X83.755 Y76.54 E30.8006
G1 X84.329 Y76.088 E30.8249
G1 X84.997 Y75.816 E30.84889
G1 X85.733 Y75.718 E30.87358
G1 X86.448 Y75.81 E30.89756
G1 X87.114 Y76.081 E30.92148
G1 X87.698 Y76.52 E30.94578
G1 X88.143 Y77.098 E30.97004
G1 X88.43 Y77.774 E30.99446
G1 X88.521 Y78.489 E31.01844
G1 X88.435 Y79.194 E31.04206
G1 X88.151 Y79.869 E31.06642
G1 X87.704 Y80.459 E31.09104
G1 X87.14 Y80.884 E31.11452
G1 X86.438 Y81.18 E31.13986
G1 X85.733 Y81.264 E31.16348
G1 F1500 E24.66348
G0 F6000 X86.482 Y81.356
G0 X97.495 Y96.489
G0 X110.251 Y118.08
G1 F1500 E31.16348
G1 F1200 X109.047 Y118.018 E31.20358
G1 X107.642 Y117.807 E31.25083
G1 X106.31 Y117.475 E31.29649
G1 X104.894 Y116.971 E31.34648
G1 X103.61 Y116.359 E31.39379
G1 X102.426 Y115.647 E31.43974
G1 X101.251 Y114.776 E31.48839
G1 X100.191 Y113.817 E31.53593
G1 X99.214 Y112.735 E31.58442
G1 X98.378 Y111.61 E31.63104
G1 X97.621 Y110.345 E31.68007
G1 X97.037 Y109.114 E31.72538
G1 X96.533 Y107.698 E31.77538
G1 X96.19 Y106.309 E31.82296
G1 X95.984 Y104.902 E31.87026
G1 X95.916 Y103.462 E31.91821
G1 X95.99 Y102.019 E31.96626
G1 X96.201 Y100.619 E32.01335
G1 X96.55 Y99.226 E32.06112
G1 X97.014 Y97.926 E32.10703
G1 X97.621 Y96.635 E32.15447
G1 X98.39 Y95.353 E32.2042
G1 X99.214 Y94.245 E32.25012
G1 X100.191 Y93.163 E32.29861
G1 X101.254 Y92.201 E32.34629
G1 X102.406 Y91.346 E32.39401
G1 X103.663 Y90.597 E32.44268
G1 X104.894 Y90.013 E32.48799
G1 X106.31 Y89.505 E32.53803
G1 X107.699 Y89.162 E32.58562
G1 X109.106 Y88.956 E32.63291
G1 X110.546 Y88.888 E32.68086
G1 X111.985 Y88.962 E32.72878
G1 X113.389 Y89.173 E32.77601
G1 X114.725 Y89.505 E32.82179
G1 X116.138 Y90.013 E32.87173
G1 X117.369 Y90.597 E32.91705
G1 X118.621 Y91.343 E32.96552
G1 X119.789 Y92.207 E33.01385
G1 X120.841 Y93.163 E33.06113
G1 X121.804 Y94.223 E33.10876
G1 X122.645 Y95.357 E33.15572
G1 X123.411 Y96.635 E33.20527
G1 X124.018 Y97.926 E33.25272
G1 X124.482 Y99.226 E33.29863
G1 X124.846 Y100.677 E33.34839
G1 X125.048 Y102.08 E33.39553
G1 X125.12 Y103.524 E33.44362
G1 X125.048 Y104.904 E33.48958
G1 X124.844 Y106.324 E33.53729
G1 X124.482 Y107.754 E33.58636
G1 X124.018 Y109.058 E33.63239
G1 X123.411 Y110.346 E33.67975
G1 X122.667 Y111.59 E33.72796
G1 X121.805 Y112.757 E33.77622
G1 X120.841 Y113.817 E33.82387
G1 X119.785 Y114.776 E33.87131
G1 X118.606 Y115.647 E33.92007
G1 X117.37 Y116.387 E33.96798
G1 X116.138 Y116.971 E34.01333
G1 X114.782 Y117.458 E34.06125
G1 X113.333 Y117.818 E34.11091
G1 X111.926 Y118.024 E34.15821
G1 X110.486 Y118.092 E34.20615
G1 X110.251 Y118.08 E34.21398
G1 F1500 E27.71398
G0 F6000 X110.476 Y118.272
G0 X110.476 Y132.296
G0 X110.216 Y132.496
G1 F1500 E34.21398
G1 F1200 X139.688 Y132.496 E35.19422
G1 X139.688 Y73.696 E37.14992
G1 X80.888 Y73.696 E39.10562
G1 X80.888 Y132.496 E41.06131
G1 X110.216 Y132.496 E42.03676
G1 F1500 E35.53676
G0 F6000 X85.612 Y132.296
G0 X85.642 Y130.652
G0 X85.612 Y130.468
G1 F1500 E42.03676
G1 F1200 X84.885 Y130.383 E42.06111
G1 X84.22 Y130.106 E42.08507
G1 X83.625 Y129.652 E42.10996
G1 X83.189 Y129.09 E42.13362
G1 X82.907 Y128.411 E42.15807
G1 X82.816 Y127.696 E42.18205
G1 X82.906 Y126.984 E42.20592
G1 X83.188 Y126.303 E42.23043
G1 X83.628 Y125.735 E42.25433
G1 X84.208 Y125.292 E42.2786
G1 X84.886 Y125.01 E42.30303
G1 X85.608 Y124.918 E42.32723
G1 X86.321 Y125.009 E42.35114
G1 X87.006 Y125.294 E42.37582
G1 X87.587 Y125.738 E42.40014
G1 X88.026 Y126.308 E42.42407
G1 X88.306 Y126.99 E42.44859
G1 X88.396 Y127.69 E42.47206
G1 X88.306 Y128.411 E42.49623
G1 X88.023 Y129.088 E42.52063
G1 X87.579 Y129.661 E42.54474
G1 X87.012 Y130.096 E42.56851
G1 X86.332 Y130.38 E42.59302
G1 X85.612 Y130.468 E42.61715
G1 F1500 E36.11715
G0 F6000 X87.103 Y130.254
G0 X133.354 Y130.258
G0 X134.844 Y130.468
G1 F1500 E42.61715
G1 F1200 X134.125 Y130.383 E42.64123
G1 X133.447 Y130.102 E42.66564
G1 X132.87 Y129.663 E42.68975
G1 X132.424 Y129.088 E42.71396
G1 X132.141 Y128.407 E42.73848
G1 X132.056 Y127.69 E42.7625
G1 X132.146 Y126.98 E42.7863
G1 X132.427 Y126.302 E42.81071
G1 X132.863 Y125.742 E42.83432
G1 X133.468 Y125.284 E42.85956
G1 X134.138 Y125.014 E42.88358
G1 X134.837 Y124.928 E42.90701
G1 X135.56 Y125.009 E42.9312
G1 X136.237 Y125.291 E42.9556
G1 X136.817 Y125.732 E42.97983
G1 X137.26 Y126.299 E43.00376
G1 X137.546 Y126.981 E43.02836
G1 X137.632 Y127.696 E43.05231
G1 X137.546 Y128.41 E43.07623
G1 X137.262 Y129.093 E43.10083
G1 X136.823 Y129.646 E43.12432
G1 X136.243 Y130.099 E43.1488
G1 X135.566 Y130.38 E43.17317
G1 X134.844 Y130.468 E43.19737
G1 F1500 E36.69737
G0 F6000 X136.164 Y129.971
G0 X136.717 Y129.547
G0 X137.131 Y129.011
G0 X137.396 Y128.377
G0 X137.488 Y127.698
G0 X137.396 Y127.018
G0 X137.126 Y126.377
G0 X136.711 Y125.841
G0 X136.268 Y125.504
G0 X134.866 Y124.744
G0 X134.873 Y81.448
G0 X134.85 Y81.27
G1 F1500 E43.19737
G1 F1200 X134.128 Y81.179 E43.22157
G1 X133.46 Y80.899 E43.24566
G1 X132.875 Y80.463 E43.26993
G1 X132.423 Y79.883 E43.29438
G1 X132.142 Y79.203 E43.31886
G1 X132.056 Y78.506 E43.34221
G1 X132.141 Y77.779 E43.36656
G1 X132.421 Y77.11 E43.39068
G1 X132.865 Y76.529 E43.415
G1 X133.445 Y76.087 E43.43926
G1 X134.116 Y75.812 E43.46337
G1 X134.844 Y75.718 E43.48779
G1 X135.564 Y75.81 E43.51193
G1 X136.231 Y76.086 E43.53594
G1 X136.818 Y76.537 E43.56056
G1 X137.252 Y77.095 E43.58407
G1 X137.545 Y77.773 E43.60864
G1 X137.632 Y78.492 E43.63273
G1 X137.546 Y79.196 E43.65632
G1 X137.265 Y79.883 E43.681
G1 X136.822 Y80.455 E43.70507
G1 X136.24 Y80.896 E43.72935
G1 X135.562 Y81.178 E43.75378
G1 X134.85 Y81.27 E43.77765
G0 F6000 X134.823 Y80.863
;TYPE:WALL-OUTER
G1 F1200 X134.214 Y80.783 E43.79808
G1 X133.652 Y80.548 E43.81834
G1 X133.162 Y80.177 E43.83879
G1 X132.765 Y79.663 E43.86039
G1 X132.537 Y79.115 E43.88013
G1 X132.454 Y78.501 E43.90074
G1 X132.532 Y77.878 E43.92162
G1 X132.784 Y77.294 E43.94277
G1 X133.148 Y76.816 E43.96276
G1 X133.646 Y76.436 E43.98359
G1 X134.224 Y76.2 E44.00436
G1 X134.844 Y76.122 E44.02514
G1 X135.462 Y76.2 E44.04586
G1 X136.045 Y76.447 E44.06692
G1 X136.532 Y76.816 E44.08724
G1 X136.916 Y77.324 E44.10842
G1 X137.155 Y77.879 E44.12852
G1 X137.234 Y78.492 E44.14908
G1 X137.158 Y79.079 E44.16876
G1 X136.916 Y79.681 E44.19034
G1 X136.54 Y80.167 E44.21078
G1 X136.057 Y80.532 E44.23092
G1 X135.459 Y80.788 E44.25255
G1 X134.823 Y80.863 E44.27385
G1 F1500 E37.77385
G0 F6000 X134.784 Y81.17
G0 X134.059 Y81.348
G0 X123.537 Y96.489
G0 X110.252 Y117.679
G1 F1500 E44.27385
G1 F1200 X109.106 Y117.622 E44.31201
G1 X107.739 Y117.419 E44.35798
G1 X106.407 Y117.087 E44.40364
G1 X105.084 Y116.617 E44.45033
G1 X103.816 Y116.016 E44.49701
G1 X102.616 Y115.293 E44.5436
G1 X101.497 Y114.461 E44.58998
G1 X100.467 Y113.527 E44.63623
G1 X99.535 Y112.496 E44.68245
G1 X98.703 Y111.377 E44.72883
G1 X97.992 Y110.191 E44.77482
G1 X97.391 Y108.924 E44.82146
G1 X96.921 Y107.601 E44.86816
G1 X96.589 Y106.269 E44.91382
G1 X96.384 Y104.882 E44.96045
G1 X96.316 Y103.482 E45.00707
G1 X96.384 Y102.098 E45.05316
G1 X96.589 Y100.715 E45.09966
G1 X96.921 Y99.379 E45.14545
G1 X97.391 Y98.06 E45.19202
G1 X97.992 Y96.789 E45.23878
G1 X98.711 Y95.592 E45.28522
G1 X99.547 Y94.469 E45.33179
G1 X100.481 Y93.439 E45.37803
G1 X101.512 Y92.507 E45.42426
G1 X102.633 Y91.676 E45.47067
G1 X103.834 Y90.959 E45.51719
G1 X105.084 Y90.367 E45.56319
G1 X106.407 Y89.893 E45.60994
G1 X107.739 Y89.561 E45.65559
G1 X109.126 Y89.356 E45.70223
G1 X110.526 Y89.288 E45.74885
G1 X111.926 Y89.358 E45.79547
G1 X113.293 Y89.561 E45.84143
